X: 171
T:Brushy Forks of John's Creek
M:4/4
L:1/8
F:http://blackrosetheband.googlepages.com/ABCTUNES.ABC May 2009
C:Tuning: GDGD
C:Source: Troublesome Creek String Band
S:Troublesome Creek String Band
K:DDor
"G"AGAc|"D"d3 d (3cdc AG|A2c2 AGAc|d3d dcAc|
"G"G4 A2c2|"D"d3c AG3|Ac3 AGAc|dcd2 dcA2|
"G"G4 "D"d4|d3f dcAG |Ac3 AGAc |d3c dcAc|
"G"G4 A2c2|"D"d3c dcdc|AG3 Ac3|AGAc dcdc|dc A2 "G"G4|
G4 g4|"F"f3g fc3|dcdf gfgf|"D"dc Ac "G"G4|
G4 g4|"F"a3g fc3|dcdf gfgf|"D"dcAc "G"G4:|

